packages/tokens/icons/contactCenter/size24Px.svg

<svg viewBox="0 0 24 24" fill="none" xmlns="http://www.w3.org/2000/svg" width="1em" height="1em"><path d="M21.4998 9.78586L21.4998 7.55572C21.4998 4.76365 19.0768 2.50022 15.9998 2.50022C12.9229 2.50022 10.4999 4.76365 10.4999 7.55572L10.4999 9.78586" stroke="currentColor"/><path d="M20.7141 11.5001V12.5001C20.7141 13.0524 20.2664 13.5001 19.7141 13.5001H17.4998" stroke="currentColor" stroke-linecap="round"/><circle cx="16.4998" cy="13.5001" r="0.999985" stroke="currentColor"/><path d="M10.4999 9.21451C10.4999 8.38609 11.1715 7.71452 11.9999 7.71452C12.276 7.71452 12.4999 7.93838 12.4999 8.21452L12.4999 10.9288C12.4999 11.2049 12.276 11.4288 11.9999 11.4288C11.1715 11.4288 10.4999 10.7572 10.4999 9.92878V9.21451Z" stroke="currentColor"/><path d="M21.4998 9.21451C21.4998 8.38609 20.8282 7.71452 19.9998 7.71452C19.7237 7.71452 19.4998 7.93838 19.4998 8.21452V10.9288C19.4998 11.2049 19.7237 11.4288 19.9998 11.4288C20.8282 11.4288 21.4998 10.7572 21.4998 9.92878V9.21451Z" stroke="currentColor"/><path d="M8.49991 5.49994L4.49995 5.49994C3.3954 5.49994 2.49998 6.39537 2.49997 7.49992L2.49997 15.4998C2.49997 16.6044 3.3954 17.4998 4.49995 17.4998L19.4998 17.4998C20.6044 17.4998 21.4998 16.6044 21.4998 15.4998V14.4999" stroke="currentColor" stroke-linecap="round"/><path d="M11.9999 17.4998L11.9999 20.4998" stroke="currentColor"/><path d="M6.49993 20.4998H17.4998" stroke="currentColor" stroke-linecap="round"/></svg>

<svg xmlns="http://www.w3.org/2000/svg" fill="none" viewBox="0 0 24 24" width="1em" height="1em"><path stroke="currentColor" d="M21.5 9.786v-2.23C21.5 4.764 19.077 2.5 16 2.5s-5.5 2.264-5.5 5.056v2.23"/><path stroke="currentColor" stroke-linecap="round" d="M20.714 11.5v1a1 1 0 0 1-1 1H17.5"/><circle cx="16.5" cy="13.5" r="1" stroke="currentColor"/><path stroke="currentColor" d="M10.5 9.215a1.5 1.5 0 0 1 1.5-1.5.5.5 0 0 1 .5.5v2.714a.5.5 0 0 1-.5.5 1.5 1.5 0 0 1-1.5-1.5v-.714Zm11 0a1.5 1.5 0 0 0-1.5-1.5.5.5 0 0 0-.5.5v2.714a.5.5 0 0 0 .5.5 1.5 1.5 0 0 0 1.5-1.5v-.714Z"/><path stroke="currentColor" stroke-linecap="round" d="M8.5 5.5h-4a2 2 0 0 0-2 2v8a2 2 0 0 0 2 2h15a2 2 0 0 0 2-2v-1"/><path stroke="currentColor" d="M12 17.5v3"/><path stroke="currentColor" stroke-linecap="round" d="M6.5 20.5h11"/></svg>
